!!!COM: Palestrina, Giovanni Perluigi da
!!!OPR: Sine nomine (1599)
!!!OTL: Gloria
**kern	**kern	**kern	**kern	**kern
*Ibass	*Itenor	*Icalto	*Icalto	*Icant
!Bassus	!Tenor	!Altus 2	!Altus 1	!Cantus
*clefF4	*clefGv2	*clefG2	*clefG2	*clefG2
*k[]	*k[]	*k[]	*k[]	*k[]
*A:aeo	*A:aeo	*A:aeo	*A:aeo	*A:aeo
*M4/2	*M4/2	*M4/2	*M4/2	*M4/2
=1	=1	=1	=1	=1
1r	0r	0r	1.e	0r
[1A	.	.	.	.
.	.	.	2e	.
=2	=2	=2	=2	=2
2A]	0r	0r	1f	0r
2A	.	.	.	.
1B	.	.	1g	.
=3	=3	=3	=3	=3
1c	0r	0r	2.a	0r
.	.	.	4g	.
[1d	.	.	4f	.
.	.	.	4e	.
.	.	.	2d	.
=4	=4	=4	=4	=4
2d]	0r	1.e	0A	1r
4c#	.	.	.	.
4B	.	.	.	.
1c#	.	.	.	[1a
.	.	2e	.	.
=5	=5	=5	=5	=5
2r	1.d	1f	0r	2a]
2d	.	.	.	2a
2G	.	1g	.	1b
2B	2d	.	.	.
=6	=6	=6	=6	=6
1A	1e	2a	1r	1cc
.	.	2a	.	.
2r	1f	2d	1a	1dd
2d	.	2f	.	.
=7	=7	=7	=7	=7
1.c	2g	2.e	1.cc	1ee
.	2g	.	.	.
.	.	4f	.	.
.	2c	[1g	.	2ee
2c	2e	.	2cc	2cc
=8	=8	=8	=8	=8
4G	2.d	1g]	1b	1.dd
4A	.	.	.	.
4B	.	.	.	.
4c	4e	.	.	.
1d	[1f	1r	1a	.
.	.	.	.	[2ff
=9	=9	=9	=9	=9
0r	1f]	1.a	1.cc	2ff]
.	.	.	.	2ff
.	1r	.	.	2ee
.	.	2a	2cc	2ff
=10	=10	=10	=10	=10
0r	1.g	2g	2b	4ee
.	.	.	.	4dd
.	.	2g	2b	2.dd
.	.	1e	1g	.
.	.	.	.	8cc#
.	.	.	.	8b
.	2g	.	.	2cc#
=11	=11	=11	=11	=11
1.B-	2f	1d	2d	2dd
.	2f	.	2d	1dd
.	1d	1r	2f	.
2B-	.	.	[2g	2g
=12	=12	=12	=12	=12
2A	1c	0r	2g]	2a
2A	.	.	1f	2a
1G	1r	.	.	1b-
.	.	.	2e	.
=13	=13	=13	=13	=13
1D	0r	2r	2f	2a
.	.	2f	2d	2a
1r	.	2g	2B-	2dd
.	.	2g	2B-	2dd
=14	=14	=14	=14	=14
1A	2r	1a	2A	4cc
.	.	.	.	4dd
.	2e	.	2a	4ee
.	.	.	.	4cc
2d	2f	1r	2a	4dd
.	.	.	.	4ee
2d	2f	.	2a	[2ff
=15	=15	=15	=15	=15
2.c	1g	1r	1.cc	2ff]
.	.	.	.	4ee
4B	.	.	.	4dd
4A	1r	2r	.	2ee
4G	.	.	.	.
2F	.	[2a	[2cc	[2ff
=16	=16	=16	=16	=16
0r	1r	4a]	4cc]	4ff]
.	.	4a	4cc	4ff
.	.	2g	2b	2ee
.	2r	2f	2a	2dd
.	[2g	2e	2g	2cc#
=17	=17	=17	=17	=17
2r	4g]	1d	2a	2dd
.	4g	.	.	.
2d	2f	.	2d	2.a
2c	2e	1r	2A	.
.	.	.	.	4a
2B	2d	.	2d	2b
=18	=18	=18	=18	=18
2A	1c	1r	2e	2cc
2A	.	.	2f#	2a
2G	1r	2r	2g	2b
[2G	.	[2g	[2d	[2b
=19	=19	=19	=19	=19
2G]	1r	2g]	2d]	2b]
2G	.	2g	2d	2b
1F	2r	1a	2.f	[1cc
.	[2f	.	.	.
.	.	.	4g	.
=20	=20	=20	=20	=20
1F	2f]	1f	2.a	2cc]
.	2f	.	.	2dd
.	.	.	4b	.
[1C	1g	1e	2cc	[1ee
.	.	.	2cc	.
=21	=21	=21	=21	=21
1C]	1e	1r	1g	2ee]
.	.	.	.	4dd
.	.	.	.	4cc
1G	1d	2r	2r	2b
.	.	2g	2d	2b
=22	=22	=22	=22	=22
2G	1r	2g	2d	2b
2G	.	2g	2d	2b
1F	2r	1a	2.f	[1cc
.	2f	.	.	.
.	.	.	4g	.
=23	=23	=23	=23	=23
1F	2f	1f	2.a	2cc]
.	2f	.	.	2dd
.	.	.	4b	.
[1C	1g	1e	1cc	[1ee
=24	=24	=24	=24	=24
1C]	1e	2r	1g	2ee]
.	.	1g	.	4dd
.	.	.	.	4cc
[1G	1d	.	1g	2.b
.	.	2d	.	.
.	.	.	.	4cc
=25	=25	=25	=25	=25
2G]	2r	1d	2r	1dd
2D	1f	.	1a	.
2D	.	[1a	.	1ff
[2F	2c	.	2f	.
=26	=26	=26	=26	=26
2F]	1c	2a]	2f	2cc
2C	.	2e	1g	2cc
1C	[1g	1e	.	2ee
.	.	.	2c	2ee
=27	=27	=27	=27	=27
1.G	2g]	0g	2d	[0dd
.	2d	.	4G	.
.	.	.	4A	.
.	1d	.	4B	.
.	.	.	4c	.
4F	.	.	[2d	.
4E	.	.	.	.
=28	=28	=28	=28	=28
2.D	0f	0a	4d]	1dd]
.	.	.	4e	.
.	.	.	4f	.
4E	.	.	4g	.
1F	.	.	4a	1cc
.	.	.	4g	.
.	.	.	[2f	.
=29	=29	=29	=29	=29
2C	0g	0r	2f]	2cc
1c	.	.	4e	1ee
.	.	.	4d	.
.	.	.	4e	.
.	.	.	4f	.
2B	.	.	[2g	2dd
=30	=30	=30	=30	=30
1A	0r	1r	2g]	1.cc
.	.	.	2f#	.
2.G	.	2r	1g	.
.	.	[2g	.	2b
8F	.	.	.	.
8E	.	.	.	.
=31	=31	=31	=31	=31
1D	1r	2g]	1a	2r
.	.	2f	.	2dd
1r	2r	2e	1r	2cc
.	[2f	2d	.	2b
=32	=32	=32	=32	=32
0r	2f]	2f	1r	2a
.	2e	2g	.	2cc
.	2d	1a	2r	2dd
.	2c	.	2cc	[2ee
=33	=33	=33	=33	=33
2r	2e	2g	2b	2ee]
2D	2f	2f	2a	2dd
2E	1g	1e	2g	4cc
.	.	.	.	8b
.	.	.	.	8a
2E	.	.	2e	4b
.	.	.	.	4cc
=34	=34	=34	=34	=34
1F	2f	0r	2a	4dd
.	.	.	.	4cc
.	2e	.	2a	1cc
1G	1d	.	1g	.
.	.	.	.	2b
=35	=35	=35	=35	=35
2r	0r	2r	2c	4cc
.	.	.	.	4b
2.A	.	2.e	2.cc	4a
.	.	.	.	4g
.	.	.	.	1a
4A	.	4e	4cc	.
2A	.	2f#	2cc	.
=36	=36	=36	=36	=36
0G	2r	0g	0b	0r
.	2.d	.	.	.
.	4d	.	.	.
.	2e	.	.	.
=37	=37	=37	=37	=37
0F	0f	2a	0a	1.cc
.	.	2.A	.	.
.	.	4B	.	.
.	.	4c	.	2cc
.	.	4d	.	.
=38	=38	=38	=38	=38
4C	2g	1e	1.g	1cc
4D	.	.	.	.
4E	2.G	.	.	.
4F	.	.	.	.
2G	.	1d	.	2b
.	4A	.	.	.
2G	4B	.	2g	2b
.	4c	.	.	.
=39	=39	=39	=39	=39
4D	1d	1f	0a	2a
4E	.	.	.	.
4F	.	.	.	2a
4G	.	.	.	.
2.A	1c	1e	.	[1cc
4B	.	.	.	.
=40	=40	=40	=40	=40
1c	1e	0r	2g	1cc]
.	.	.	2g	.
[1G	1d	.	2g	2b
.	.	.	4G	[2dd
.	.	.	4A	.
=41	=41	=41	=41	=41
1G]	0r	2r	4B	2dd]
.	.	.	4c	.
.	.	1g	4d	2b
.	.	.	4e	.
1r	.	.	1c	1cc
.	.	2e	.	.
=42	=42	=42	=42	=42
2r	2r	1f	1d	1a
1d	1f	.	.	.
.	.	1d	1r	1dd
2B	2d	.	.	.
=43	=43	=43	=43	=43
1c	1e	1g	0r	2cc
.	.	.	.	2cc
1A	1c	2f	.	2.cc
.	.	2e	.	.
.	.	.	.	4a
=44	=44	=44	=44	=44
1d	1f	1d	1r	4b-
.	.	.	.	4a
.	.	.	.	2.a
2c	2e	1r	2r	.
.	.	.	.	8g
.	.	.	.	8f
2B-	2d	.	2d	2g
=45	=45	=45	=45	=45
1A	1c	0r	2e	2a
.	.	.	2f	2a
1r	1r	.	2g	2b
.	.	.	2e	2cc
=46	=46	=46	=46	=46
0r	0r	1r	2f	2dd
.	.	.	2g	2b
.	.	2r	2.a	2cc
.	.	2d	.	2dd
.	.	.	4f	.
=47	=47	=47	=47	=47
0r	1r	2e	2g	2b
.	.	2f	2f	2a
.	2r	2g	1e	2g
.	2c	2e	.	2gg
=48	=48	=48	=48	=48
0r	2d	2f	0r	2ff
.	2e	2g	.	2ee
.	2f	2.a	.	2cc
.	2d	.	.	2dd
.	.	4f	.	.
=49	=49	=49	=49	=49
1r	2e	2g	2r	4b
.	.	.	.	4cc
.	2f	2f	2a	4dd
.	.	.	.	8cc
.	.	.	.	8dd
2r	2.g	1e	2b	1ee
2C	.	.	2cc	.
.	4e	.	.	.
=50	=50	=50	=50	=50
2D	2f	0r	2a	2dd
2E	2e	.	2g	1cc
2F	1d	.	2a	.
2G	.	.	2g	2b
=51	=51	=51	=51	=51
2A	0r	1r	4e	1a
.	.	.	4c	.
2F	.	.	1cc	.
[1G	.	[1d	.	1g
.	.	.	4b	.
.	.	.	4a	.
=52	=52	=52	=52	=52
2G]	1r	1d]	2b	2r
2G	.	.	2b	2gg
1C	[1c	1e	1cc	4gg
.	.	.	.	4ff
.	.	.	.	4ee
.	.	.	.	4dd
=53	=53	=53	=53	=53
1F	1c]	0f	1a	2cc
.	.	.	.	2.ff
1D	1d	.	1a	.
.	.	.	.	4ee
.	.	.	.	[2dd
=54	=54	=54	=54	=54
0A	0e	1e	0a	2dd]
.	.	.	.	4cc#
.	.	.	.	4b
.	.	1r	.	1cc#
=55	=55	=55	=55	=55
2D	1d	2r	2.f	2dd
2.D	.	2.a	.	2.ff
.	.	.	4e	.
.	1r	.	2.d	.
4D	.	4a	.	4ff
2D	.	2a	.	2ff
.	.	.	4c	.
=56	=56	=56	=56	=56
1E	2r	2.g	1B	2.ee
.	2.g	.	.	.
.	.	4f	.	4dd
1E	.	2e	1r	2cc
.	4g	.	.	.
.	2g	2d	.	2b
=57	=57	=57	=57	=57
1F	2.f	2c	0r	0a
.	.	2c	.	.
.	4e	.	.	.
1F	2d	1f	.	.
.	2c	.	.	.
=58	=58	=58	=58	=58
1G	2B	1d	2r	1g
.	2B	.	2.g	.
1E	1e	1r	.	2r
.	.	.	4g	.
.	.	.	2g	[2cc
=59	=59	=59	=59	=59
1F	1c	2r	2.f	4cc]
.	.	.	.	4cc
.	.	2.a	.	2cc
.	.	.	4e	.
2F	1r	.	2d	1ff
.	.	4a	.	.
2F	.	2a	2c	.
=60	=60	=60	=60	=60
0G	2r	2.g	2B	1dd
.	2.g	.	2.b	.
.	.	4f	.	.
.	.	2e	.	1r
.	4g	.	4b	.
.	2g	2d	2b	.
=61	=61	=61	=61	=61
2A	2.f	1c	4a	0r
.	.	.	4b	.
2F	.	.	4cc	.
.	4e	.	4a	.
2G	2d	2B	2b	.
2A	2c	[2e	[2a	.
=62	=62	=62	=62	=62
1E	1B	2e]	2a]	2.ee
.	.	2e	2g#	.
.	.	.	.	4ee
2A	[1A	2c	2.a	2ee
[2D	.	4d	.	[2ff
.	.	4e	4g	.
=63	=63	=63	=63	=63
4D]	0A]	4f	1f	4ff]
4E	.	4g	.	4ee
4F	.	2.a	.	1dd
4G	.	.	.	.
1A	.	.	1e	.
.	.	4g	.	.
.	.	2e	.	2cc#
=64	=64	=64	=64	=64
0D	0A	0f#	0d	0dd
=65	=65	=65	=65	=65
0r	0r	0r	1a	0r
.	.	.	1g	.
=66	=66	=66	=66	=66
0r	0r	0r	2f#	1dd
.	.	.	2g	.
.	.	.	2e	1cc
.	.	.	2f#	.
=67	=67	=67	=67	=67
1r	0r	0r	2g	2b
.	.	.	4f	2cc
.	.	.	4e	.
1d	.	.	2.f	2a
.	.	.	.	2b
.	.	.	4d	.
=68	=68	=68	=68	=68
1c	0r	0r	4e	4cc
.	.	.	4f	4dd
.	.	.	1g	4ee
.	.	.	.	4cc
2B	.	.	.	2dd
2c	.	.	4f	[2ee
.	.	.	4e	.
=69	=69	=69	=69	=69
2A	1r	0r	1f	2ee]
2B	.	.	.	2dd
1c	1g	.	1e	1ee
=70	=70	=70	=70	=70
1d	1f	1r	0a	2r
.	.	.	.	2dd
1A	2e	2r	.	1cc
.	2f	[2a	.	.
=71	=71	=71	=71	=71
0r	2d	2a]	0r	2b
.	2e	1g	.	2b
.	2c	.	.	1a
.	2d	2f	.	.
=72	=72	=72	=72	=72
1r	1e	2g	2r	1g
.	.	2e	1cc	.
2r	1r	2f	.	2a
[2G	.	2d	2b	2g
=73	=73	=73	=73	=73
2G]	0r	2e	2g	2r
2F	.	1f	2a	1dd
2D	.	.	2f	.
2E	.	2r	[2e	2cc
=74	=74	=74	=74	=74
2F	1r	0r	4e]	2a
.	.	.	4d	.
2G	.	.	1d	2b
1E	1g	.	.	1ee
.	.	.	2c#	.
=75	=75	=75	=75	=75
2D	2f	1r	1d	1a
2d	2d	.	.	.
2c	2e	2r	1r	[1cc
4F	[2f	[2a	.	.
4G	.	.	.	.
=76	=76	=76	=76	=76
4A	2f]	2a]	0r	2cc]
4B	.	.	.	.
1c	2e	2g	.	2cc
.	2g	2e	.	2cc
2d	[2f	2f	.	2b
=77	=77	=77	=77	=77
1c	4f]	1g	2r	0cc
.	8e	.	.	.
.	8d	.	.	.
.	2e	.	2g	.
1F	1f	2f	2a	.
.	.	2a	[2cc	.
=78	=78	=78	=78	=78
2r	0r	2.g	2cc]	1dd
2G	.	.	2b	.
.	.	8f	.	.
.	.	8e	.	.
2d	.	2f	2a	2r
2B	.	[2g	4g	[2dd
.	.	.	4f	.
=79	=79	=79	=79	=79
1c	2r	2g]	2e	2dd]
.	1g	2r	2e	1cc
2d	.	1r	1f	.
2d	[2f	.	.	2b
=80	=80	=80	=80	=80
1c	2f]	1r	1g	1.cc
.	2e	.	.	.
1F	2f	1a	1r	.
.	2d	.	.	2dd
=81	=81	=81	=81	=81
0r	2e	1g	1r	2b
.	2c	.	.	2cc
.	2d	2f	2r	2a
.	[2e	2g	2c	4g
.	.	.	.	4a
=82	=82	=82	=82	=82
2r	2e]	2e	2g	4b
.	.	.	.	4cc
2d	2d	2f	2a	4dd
.	.	.	.	4ee
2d	1r	2d	1a	2ff
2c#	.	2e	.	[2ee
=83	=83	=83	=83	=83
1d	1r	1f	2.a	2ee]
.	.	.	.	2dd
.	.	.	4b	.
2A	2r	2e	2cc	2ee
[2c	[2g	2r	[2cc	[2ee
=84	=84	=84	=84	=84
2c]	2g]	0r	2cc]	2ee]
2c	2g	.	2cc	2ee
1F	1f	.	2a	1cc
.	.	.	[2a	.
=85	=85	=85	=85	=85
2.D	2.f	1a	2a]	2.dd
.	.	.	2f	.
4D	4f	.	.	4dd
2F	2f	2a	2a	2cc
2C	2e	[2g	2cc	2cc
=86	=86	=86	=86	=86
2G	2d	2g]	2b	2dd
2C	2c	2.g	1cc	2ee
1G	1d	.	.	2dd
.	.	4g	.	.
.	.	2g	2b	2dd
=87	=87	=87	=87	=87
2.A	2c	2f	1cc	2r
.	2r	2e	.	1a
4G	.	.	.	.
2F	1r	2d	1r	.
2E	.	[2e	.	[2cc
=88	=88	=88	=88	=88
1F	1r	2e]	1a	2cc]
.	.	2d	.	4b
.	.	.	.	4a
1E	1e	1r	1g	2b
.	.	.	.	2cc
=89	=89	=89	=89	=89
0r	1d	1r	2f	1dd
.	.	.	2a	.
.	2c	2r	2cc	2ee
.	2d	[2f	2a	2ff
=90	=90	=90	=90	=90
1r	2f	2f]	2a	1cc
.	2g	1e	1cc	.
1F	1a	.	.	1r
.	.	2d	4b	.
.	.	.	4a	.
=91	=91	=91	=91	=91
1E	2.g	2e	2cc	0r
.	.	2g	2b	.
.	8f	.	.	.
.	8e	.	.	.
2D	2f	2a	2r	.
2G	[2d	[2b	2g	.
=92	=92	=92	=92	=92
2G	2d]	2b]	2g	2r
2A	2c	2.a	2e	2a
1E	1B	.	1e	1b
.	.	8g	.	.
.	.	8f#	.	.
.	.	2g	.	.
=93	=93	=93	=93	=93
1A	0r	1e	2c	2cc
.	.	.	2A	2cc
2D	.	2d	[1a	4f
.	.	.	.	4g
[2F	.	[2c	.	4a
.	.	.	.	4b
=94	=94	=94	=94	=94
2F]	1r	2c]	2a]	4cc
.	.	.	.	4dd
2E	.	2r	2g	2.ee
2F	2r	1r	2a	.
.	.	.	.	4dd
2D	[2f	.	2a	[2dd
=95	=95	=95	=95	=95
1A	2f]	0r	1a	2dd]
.	2e	.	.	2cc#
1D	2f	.	1a	2dd
.	2d	.	.	[2dd
=96	=96	=96	=96	=96
1r	1e	1g	0r	2dd]
.	.	.	.	2cc#
2r	1d	2f	.	2dd
2G	.	2g	.	2b
=97	=97	=97	=97	=97
2A	0r	2e	2r	2.cc
4F	.	1f	1a	.
4G	.	.	.	4b
4A	.	.	.	4cc
4B	.	.	.	4dd
2c	.	[2e	2g	[2ee
=98	=98	=98	=98	=98
2A	0r	2e]	2a	4ee]
.	.	.	.	4cc
2d	.	2r	2f	1ff
1c	.	1r	1g	.
.	.	.	.	2ee
=99	=99	=99	=99	=99
1F	1f	0r	2a	2ff
.	.	.	2a	1cc
1r	2e	.	2g	.
.	2d	.	2f	2b
=100	=100	=100	=100	=100
0r	2c	2r	1e	2a
.	1e	1g	.	2g
.	.	.	1r	1b
.	2d	2f	.	.
=101	=101	=101	=101	=101
1r	2c	2e	1r	2a
.	2B	2d	.	2g#
1F	1A	1f	2r	2a
.	.	.	2a	2cc
=102	=102	=102	=102	=102
2C	0r	2e	2g	2cc
2D	.	2d	2f	4a
.	.	.	.	4b
2A	.	2c	2e	4cc
.	.	.	.	4dd
[2E	.	[2B	[2g	4ee
.	.	.	.	4ff
=103	=103	=103	=103	=103
2E]	0r	2B]	2g]	2ee
2F	.	2r	2f	1dd
2G	.	1r	1e	.
2A	.	.	.	2cc#
=104	=104	=104	=104	=104
1D	1f	0r	2d	2dd
.	.	.	2a	2dd
1r	2e	.	2g	2cc
.	2d	.	2f	2dd
=105	=105	=105	=105	=105
1r	2e	2r	2g	2b
.	2e	1g	2g	2cc#
2r	1d	.	[1a	1dd
2d	.	2f	.	.
=106	=106	=106	=106	=106
2c#	0r	2e	1a]	2r
2d	.	2f	.	1dd
2.A	.	2f	1a	.
.	.	[2e	.	[2cc
4B	.	.	.	.
=107	=107	=107	=107	=107
2c	2r	2e]	1g	2cc]
2G	1g	2r	.	2b
2d	.	1r	2a	2.a
2d	2f	.	2d	.
.	.	.	.	4b
=108	=108	=108	=108	=108
2c	2e	1r	2g	2cc
2B	2d	.	2g	1dd
1A	2e	1a	1a	.
.	2e	.	.	2cc#
=109	=109	=109	=109	=109
4B	1d	2g	1r	1dd
4c	.	.	.	.
4d	.	2f	.	.
4B	.	.	.	.
2c	1r	2e	2.a	2r
2d	.	2f	.	[2a
.	.	.	4b	.
=110	=110	=110	=110	=110
1A	1r	2f	0cc	4a]
.	.	.	.	4b
.	.	1e	.	4cc
.	.	.	.	4dd
1c	1g	.	.	1ee
.	.	2r	.	.
=111	=111	=111	=111	=111
2.F	1f	1r	2a	2cc
.	.	.	2.a	2.dd
4G	.	.	.	.
2.A	1e	2r	.	.
.	.	.	8g	4cc
.	.	.	8f	.
.	.	[2a	2e	[2cc
4G	.	.	.	.
=112	=112	=112	=112	=112
2F	1d	2a]	2f	2cc]
2G	.	1g	2d	2b
2C	1c	.	2e	1cc
4F	.	[2f	[2a	.
4G	.	.	.	.
=113	=113	=113	=113	=113
4A	0r	2f]	2a]	2r
4B	.	.	.	.
1c	.	1e	4g	1cc
.	.	.	4f	.
.	.	.	4e	.
.	.	.	4f	.
2G	.	[2d	[2g	2b
=114	=114	=114	=114	=114
1d	1r	2d]	2g]	1a
.	.	2r	2f#	.
1G	2r	1r	[1g	[1b
.	[2d	.	.	.
=115	=115	=115	=115	=115
1G	2d]	0r	1g]	1b]
.	2e	.	.	.
2A	2f	.	1r	1r
2B	[2g	.	.	.
=116	=116	=116	=116	=116
2.c	4g]	1e	1g	0r
.	4f	.	.	.
.	4e	.	.	.
4B	4d	.	.	.
2A	2c	2f	2a	.
2G	2B	2g	2b	.
=117	=117	=117	=117	=117
1F	1A	2.a	2.cc	2r
.	.	.	.	1a
.	.	4g	4b	.
2r	1r	4f	2a	.
.	.	4e	.	.
2G	.	2d	4g	2b
.	.	.	4f	.
=118	=118	=118	=118	=118
2C	0r	2c	2e	2cc
2.G	.	1B	2d	2.dd
.	.	.	2.g	.
4A	.	.	.	4cc
2B	.	2r	.	4b
.	.	.	4f	4a
=119	=119	=119	=119	=119
2c	0r	0r	2e	2g
2d	.	.	1d	2f
1A	.	.	.	1e
.	.	.	2c#	.
=120	=120	=120	=120	=120
2r	2r	0r	2d	1d
2d	2f	.	2a	.
2.c	2.e	.	2.a	1r
4c	4e	.	4g	.
=121	=121	=121	=121	=121
2B	2d	1r	2g	0r
2A	2c	.	2cc	.
2G	2d	2g	2b	.
[2A	[2c	[2f	[2a	.
=122	=122	=122	=122	=122
2A]	2c]	4f]	2a]	1r
.	.	4f	.	.
2E	2B	2e	2g	.
2F	2A	2d	2r	2r
2E	2B	2e	2g	2gg
=123	=123	=123	=123	=123
1r	0r	1d	2a	2.ff
.	.	.	2b	.
.	.	.	.	4ff
2r	.	2c	2cc	2ee
2G	.	2B	[2g	2dd
=124	=124	=124	=124	=124
2C	0r	2c	4g]	2ee
.	.	.	4a	.
1G	.	2r	1b	1dd
.	.	1r	.	.
2A	.	.	[2a	2cc
=125	=125	=125	=125	=125
1E	0r	0r	2a]	1b
.	.	.	2g#	.
2A	.	.	1a	1a
2F	.	.	.	.
=126	=126	=126	=126	=126
4D	2r	0r	1a	1ff
4E	.	.	.	.
4F	2d	.	.	.
4G	.	.	.	.
2.A	2.c	.	2.a	2.ee
4A	4c	.	4a	4ee
=127	=127	=127	=127	=127
2E	2c	1r	2g	2ee
2G	2B	.	2g	2dd
2C	2c	2e	[1g	2cc
[2G	2r	[2d	.	[2b
=128	=128	=128	=128	=128
2G]	2r	4d]	1g]	2b]
.	.	4d	.	.
2G	1g	2d	.	2b
2E	.	2c	2r	2ee
2D	[2f	2d	[2d	2a
=129	=129	=129	=129	=129
1.A	2f]	1r	2d]	2r
.	2e	.	4c#	2a
.	.	.	4B	.
.	2e	1a	2c#	2ee
2D	[2d	.	2d	2ff#
=130	=130	=130	=130	=130
1G	2d]	1g	1B	2gg
.	1d	.	.	2dd
2D	.	2f	1A	2dd
4F	2c	2f	.	4a
4G	.	.	.	4b
=131	=131	=131	=131	=131
4A	2c	1e	1a	4cc
4B	.	.	.	4dd
2.c	4A	.	.	2.ee
.	4B	.	.	.
.	4c	[1e	2g	.
4B	4d	.	.	4dd
2A	[2e	.	2a	2cc
=132	=132	=132	=132	=132
2G#	4e]	0e_	2b	2b
.	4d	.	.	.
2.A	4c	.	2.cc	2.a
.	4B	.	.	.
.	2c	.	.	.
4G#	.	.	4b	4b
2A	2c	.	[2a	4cc
.	.	.	.	4dd
=133	=133	=133	=133	=133
1E	1B	0e_	2a]	1ee
.	.	.	2g#	.
[1A	[1A	.	[1a	[1cc#
=134	=134	=134	=134	=134
1A]	1A]	1e]	1a]	1cc#]
==	==	==	==	==
*-	*-	*-	*-	*-
!!!CDT: 1525/^1526/-1594/2/2
!!!OCY: Italia
!!!AGN: Mass (Canonic)
!!!AST: renaissance, vocal
!!!ASW: Antiphon
!!!PWK: Masses, Book 9
!!!RNB: Cadence finals: D
!!!YOR: Le Opere Complete, v. 25, p. 93
!!!YOO: Rome, Italy: Fratelli Scalera
!!!END: 1992//
!!!EED: John Miller
!!!YEC: Copyright 2000, John Miller
!!!YEN: United States of America
!!!YEM: Rights to all derivative electronic formats reserved.
!!!YEM: Refer to licensing agreement for further details.
!!!YEM: This file must be accompanied by the licensing agreement.
!!!YEM: A copy of the licensing agreement may be found at http://www.music-cog.ohio-state.edu/HumdrumDatabases/Palestrina/license.txt
!!!EMD: converted to Humdrum by Bret Aarden
